img/steering-wheel.svg

<svg width="22" height="22" viewBox="0 0 22 22" fill="none" xmlns="http://www.w3.org/2000/svg">
<path d="M11 0C4.95819 0 0 4.95819 0 11C0 17.0418 4.95819 22 11 22C17.0418 22 22 17.0418 22 11C22 4.95819 17.0418 0 11 0ZM11 19.3789C6.38002 19.3789 2.62109 15.62 2.62109 11C2.62109 6.38002 6.38002 2.62109 11 2.62109C15.62 2.62109 19.3789 6.38002 19.3789 11C19.3789 15.62 15.62 19.3789 11 19.3789Z" fill="black"/>
<path d="M12.2891 9.06641C12.2891 9.77841 11.712 10.3555 11 10.3555C10.288 10.3555 9.71094 9.77841 9.71094 9.06641C9.71094 8.3544 10.288 7.77734 11 7.77734C11.712 7.77734 12.2891 8.3544 12.2891 9.06641Z" fill="black"/>
<path d="M11 11.6446C9.85814 11.6446 8.89873 10.8936 8.56085 9.86356C6.85503 10.0495 5.26434 10.4067 3.91402 10.926C3.91368 10.9509 3.91016 10.975 3.91016 11C3.91016 11.7449 4.02715 12.4627 4.24098 13.1377C5.29573 12.5872 6.32849 12.2891 7.13281 12.2891C7.80571 12.2891 8.32251 12.4793 8.71208 12.8714C9.61275 13.7759 9.71597 15.6118 9.71799 17.9677C10.1344 18.0442 10.5618 18.0899 11 18.0899C11.4384 18.0899 11.8658 18.0442 12.2825 17.9677C12.284 15.6136 12.3867 13.7769 13.2879 12.8714C13.6775 12.4798 14.1936 12.2891 14.8672 12.2891C15.6609 12.2891 16.6959 12.5758 17.7605 13.1335C17.9737 12.4598 18.0898 11.7434 18.0898 11C18.0898 10.9755 18.0863 10.9519 18.0862 10.9275C16.6232 10.3634 15.0045 10.0348 13.4393 9.86322C13.1014 10.8936 12.142 11.6446 11 11.6446Z" fill="black"/>
</svg>

<svg width="22" height="22" fill="none" xmlns="http://www.w3.org/2000/svg"><path d="M11 0C4.958 0 0 4.958 0 11s4.958 11 11 11 11-4.958 11-11S17.042 0 11 0zm0 19.379c-4.62 0-8.379-3.759-8.379-8.379 0-4.62 3.759-8.379 8.379-8.379 4.62 0 8.379 3.759 8.379 8.379 0 4.62-3.759 8.379-8.379 8.379z" fill="#000"/><path d="M12.29 9.066a1.289 1.289 0 11-2.579 0 1.289 1.289 0 012.578 0z" fill="#000"/><path d="M11 11.645a2.573 2.573 0 01-2.44-1.781c-1.705.185-3.296.543-4.646 1.062 0 .025-.004.049-.004.074 0 .745.117 1.463.331 2.138 1.055-.55 2.087-.849 2.892-.849.673 0 1.19.19 1.58.582.9.905 1.003 2.74 1.005 5.097.416.076.844.122 1.282.122.438 0 .866-.046 1.283-.122.001-2.354.104-4.191 1.005-5.097.39-.391.906-.582 1.58-.582.793 0 1.828.287 2.893.845.213-.674.329-1.39.329-2.134 0-.024-.004-.048-.004-.072-1.463-.565-3.081-.893-4.647-1.065A2.573 2.573 0 0111 11.645z" fill="#000"/></svg>
